icon-svg/maria-db.svg

<svg xmlns="http://www.w3.org/2000/svg" viewBox="0 0 24 24"><path fill="#44739e" d="M21.298 5.676c-.564.237-.659.258-1.395.31-.541.037-.63.047-1.01.174-.625.205-1.162.625-1.683 1.325-.247.332-1.041 1.594-1.041 1.657 0 .047-.541.831-.762 1.1-.479.594-.9.899-1.784 1.325-.641.3-1.02.436-3.418 1.231-.894.294-1.777.615-1.972.72-.71.374-1.263.863-1.836 1.615-.836 1.1-.81 1.094-2.535.789a10 10 0 0 0-.563-.053c-.536-.041-.852.037-1.11.279L2 16.327l.148.073c.078.042.294.195.467.332.179.141.384.289.458.326.074.036.142.073.153.084s-.074.141-.19.294c-.363.484-.494.726-.478.873.015.137.026.142.358.142a2.9 2.9 0 0 0 1.051-.173c.541-.195 1.715-.784 2.32-1.167.646-.417 1.431-.832 1.63-.868.068-.017.295-.059.495-.095.483-.09 1.22-.08 2.156.041.09.011.31.038.5.054.189.02.358.047.378.063.022.01.395.031.832.047.778.021.92.005 1.083-.158.105-.111.321-.526.415-.821.174-.536.347-.767.305-.41-.094.805-.268 1.41-.594 2.009-.216.416-.553.91-.779 1.163-.268.289-.262.3.074.262.516-.052 1.226-.33 1.746-.683.69-.468 1.373-1.409 1.825-2.525.09-.225.184-.183.153.069-.011.079-.032.263-.048.415l-.025.274.294-.169c.694-.4 1.178-1.051 1.772-2.403.189-.432.731-2.435.894-3.313a8 8 0 0 1 .226-.869c.106-.357.164-.462.4-.715.153-.158.521-.462.815-.673.6-.421.794-.625.989-1.004.174-.348.237-.942.11-1.131-.11-.168-.236-.163-.635.005"/></svg>

<svg xmlns="http://www.w3.org/2000/svg" viewBox="0 0 24 24"><path d="M21.298 5.677C20.734 5.914 20.639 5.935 19.903 5.987 19.362 6.024 19.273 6.034 18.893 6.161 18.268 6.366 17.731 6.786 17.21 7.486 16.963 7.818 16.169 9.08 16.169 9.143 16.169 9.19 15.628 9.974 15.407 10.243 14.928 10.837 14.507 11.142 13.623 11.568 12.982 11.868 12.603 12.004 10.205 12.799 9.311 13.093 8.428 13.414 8.233 13.519 7.523 13.893 6.97 14.382 6.397 15.134 5.561 16.234 5.587 16.228 3.862 15.923A10 10 0 0 0 3.299 15.87C2.763 15.829 2.447 15.907 2.189 16.149L2 16.328 2.148 16.401C2.226 16.443 2.442 16.596 2.615 16.733 2.794 16.874 2.999 17.022 3.073 17.059 3.147 17.095 3.215 17.132 3.226 17.143S3.152 17.284 3.036 17.437C2.673 17.921 2.542 18.163 2.558 18.31 2.573 18.447 2.584 18.452 2.916 18.452 3.347 18.447 3.604 18.405 3.967 18.279 4.508 18.084 5.682 17.495 6.287 17.112 6.933 16.695 7.718 16.28 7.917 16.244 7.985 16.227 8.212 16.185 8.412 16.149 8.895 16.059 9.632 16.069 10.568 16.19 10.658 16.201 10.878 16.228 11.068 16.244 11.257 16.264 11.426 16.291 11.446 16.307 11.468 16.317 11.841 16.338 12.278 16.354 13.056 16.375 13.198 16.359 13.361 16.196 13.466 16.085 13.682 15.67 13.776 15.375 13.95 14.839 14.123 14.608 14.081 14.965 13.987 15.77 13.813 16.375 13.487 16.974 13.271 17.39 12.934 17.884 12.708 18.137 12.44 18.426 12.446 18.437 12.782 18.399 13.298 18.347 14.008 18.069 14.528 17.716 15.218 17.248 15.901 16.307 16.353 15.191 16.443 14.966 16.537 15.008 16.506 15.26 16.495 15.339 16.474 15.523 16.458 15.675L16.433 15.949 16.727 15.78C17.421 15.38 17.905 14.729 18.499 13.377 18.688 12.945 19.23 10.942 19.393 10.064A8.333 8.333 0 0 1 19.619 9.195C19.725 8.838 19.783 8.733 20.019 8.48 20.172 8.322 20.54 8.018 20.834 7.807 21.434 7.386 21.628 7.182 21.823 6.803 21.997 6.455 22.06 5.861 21.933 5.672 21.823 5.504 21.697 5.509 21.298 5.677" fill="#44739e"/></svg>
